X:1
T:Crystal, 65.65 D
T:Crystal, 65.65 D
T:John Ludwig Vanderhoven, 1933
T:Public Domain Courtesy of the Cyber Hymnal™
C:John Ludwig Vanderhoven, 1933
Z:Public Domain
Z:Courtesy of the Cyber Hymnal™
%%score ( 1 2 ) ( 3 4 )
L:1/8
Q:1/4=115
M:4/4
K:A
V:1 treble 
V:2 treble 
V:3 bass 
V:4 bass 
V:1
 [CA]2 (G>F) E2 [CE]2 | [DF]4 [DF]4 | [DG]2 (G>F) [DE]2 [DB]2 | [CA]8 | [Ec]2 (c>B) [CA]2 [Fc]2 | %5
 B4 [EG]2 [=DA]2 | [EB]2 (AG) F3 (z G) | [B,E]8 | [EB]2 (B>A) [EG]2 [DB]2 | [CA]4 [CE]4 | %10
 [Gd]2 (d>c) [GB]2 [Gd]2 | [Ac]8 | [Ae]2 (e>d) [Ac]2 [Ac]2 | [Ad]4 [A^d]4 | %14
!ff! [Ae]2 (Ad) [DB]3 [CA] | [CA]8 |] %16
V:2
 x2 D2 E2 x2 | x8 | x2 D2 x4 | x8 | x2 D2 x4 | (F2 ^D2) x4 | x2 E2 E2 ^D2 x | x8 | x2 E2 x4 | x8 | %10
 x2 G2 x4 | x8 | x2 B2 x4 | x8 | x2 F2 x4 | x8 |] %16
V:3
 [A,,E,]2 [B,,E,]2 [C,A,]2 [A,,A,]2 | A,4 [B,,B,]4 | [E,B,]2 (B,>A,) [E,G,]2 [E,G,]2 | [A,,A,]8 | %4
 [A,,A,]2 [E,G,]2 [F,A,]2 [E,A,]2 | B,4 B,4 | [G,B,]2 [A,C]2 B,2 [B,,B,]2 x | [E,G,]8 | %8
 [E,G,]2 (G,>A,) [E,B,]2 [E,G,]2 | [A,,A,]4 [A,,A,]4 | [E,B,]2 (B,>C) [E,D]2 [E,E]2 | [A,E]8 | %12
 [A,C]2 [G,E]2 [A,E]2 [=G,E]2 | [F,D]4 [=F,^B,]4 | [E,C]2 ([D,A,][B,,B,]) [E,G,]3 [A,,A,] | %15
 [A,,A,]8 |] %16
V:4
 x8 | (D,2 C,2) x4 | x2 E,2 x4 | x8 | x8 | (^D,2 B,,2) E,2 F,2 | x4 B,2 x3 | x8 | x2 E,2 x4 | x8 | %10
 x2 E,2 x4 | x8 | x8 | x8 | x8 | x8 |] %16

